/* XPM */
static char * wall_brick_xpm[] = {
"64 64 7 1",
"  c #2b2b2b",
". c #6e2f2f",
"o c #a94444",
"O c #d78b8b",
"x c #3b3b3b",
"X c #ededed",
"+ c #7a4b4b",
"X Oo...O.+Oo.+o X..o+ o.+++oo.o+XO.+ooo..Oo..o.ox. Ooo.o.oo++oo.",
"X +.Oo...ooo+o.ox+.+++.++.oO..oox+o.+oOO . oo...xo.+oo+o....Ooo.",
"xoooo..oo.O ..+.x+.oo+oo.o +O.+oxO+o.oo.o OO.oO.X+o+o+..oO.oOo +",
"x .oo. .o..Oo.Oox.+oo..o+o.oOO+.xo++oooo....o +ox. .++ .. o.o.o+",
"xo.Oooo.Ooo...+oxooO +++. oOo...xo.o.oo..oo. +o x.ooo.o .o o.OOo",
"x+OOo++o..o. oOoxo  oooo. o...+.xo.o.o+ +.o+oooox++o..o.++oooO. ",
"xo..o.o..o..oo.oxo++o +oo+.....Ox.o+.+o.++.oo. .xo  oO.+..Ooo+oo",
"xxxXXxXXXXXxXXxXXXxXXXXXXXXxXXXXXXxXxXXXXXXXXxXXXXxXXXXXXxxXXXxx",
"+ooOOoo+o.oox +o oo+OOO+.oo.x+o+.Oooo+ooo+ooxo+o+O.+oooo oo.x++o",
"ooo+.ooO.+.ox++o.O.+o...  .oXoo+o.++ooo..++ XOo..+oo o..o.o+x+oO",
"o+Ooooo.Ooo.x+oOOoo+.oo.+o..xo....o+.+..oooox .ooOo+ Oooo ooxooO",
"Oo+.o..oo ooxoO.o.+o o+o+ .+xo. .oo.oooOooOoXo Oo o.+.O+ O .X+..",
".o+.o.o+.Oo.xO+.O.o.o oo+oo+X+++..+Oo++.oO ox+o.o+o oo.oo+o+x.Oo",
"+.+oOoooO+.oXoo.Ooo++oo oo.ox.oo++oo o...Ooox+o++oo .o.o+.o+xooo",
"ooOooo+o.o..x.o.OoO+...OooO+x+o..o.o.o +o.o xo+.+Oo. oooooo.xo..",
"XXxxXXXxXxXXXXXXXXXXxxXXXxXXXXxXxXXXXxXXXXxXXXXxXXXXXxxXXXXxXXXX",
"xoo.+ oOo+. ..+oXO+.o OO.oo+oo.oxo.ooooo+..oo+ooxOo o.o.o.Ooo +o",
"x .oo+Oo+oO ..o.x+o. ++.+.oo oo.Xo.+.o+oo+.ooo.oxo.+oO..oOooOo. ",
"xo+o+o.ooooooOoox.+.oo.Oo oOo+oox.o .o+o.o.oo O.x..oO.o++o+.o+oo",
"x+Ooo +..++o.O.ox+.o.+o  o oooo.xoo+....+o++.oo.x+.o.+ oo+o..oo+",
"xo+.oo.oo..ooooox +oo o+OO +OooOxo.+.+.+OOO++.+.x oOo ooO..ooOo.",
"xOoooo...ooOo.o.x+O+ooo.o .o.oo+x.oo+o.+.o +oo+.X+o+o+o..  oo...",
"xooo+O+oo+OO.o+.xoo +o.oo.o.+oo+Xoo..o.+.+++  OoxOo..Oo.+..oO.O+",
"xXXXXXXxxXxXXXxXXxXXXxxXXXXxXXXxXXXxxXXXxXXxxXXxXXXXXXXXXXxxXXXX",
".oooooO.ooo+x.+o....o.OOo.o xoo+.oo+OoO o+ooxo..+o..ooo.Ooo.xO++",
"++o +++. ..+xoo ..o+o..O+ .Oxoooo.ooOoOo+. .x +..o+oo+oo..Ooxo.o",
"+++oo+o .o+ xo.O.O.oo. oOo..x+.oo+o.oO o o.oxoo++oo.o o.+o+ox..o",
"+oo.ooOo.oO.x+.oo.OooO+.....x+.OO+..O+ooOoOoxo+++o+o.o.oo+ooXoo.",
"ooo  oo.+.++xoooO oo+.o+oo. Xo+.o+. .+oooo+.xoooOo++ ++o.o.oxo.O",
"++.o.o+.oo++x.++.ooo+o.++O+ox+ooo oo..oOo...XoO.oOoOo +oO+.+x..+",
"O+.Oo oo+O.oxOOOo.o.oOo.o+ooxOoooo..+.. +oooxo.o.O..oo.o..oox oo",
"XXXxXXxXxXXXxXXXXXxxxXXXXXXxXXXxxXXXxxXXxXXXXXxXXXXxXXxXXXXXxXXx",
"xo.O oO.o.O++.Oox. ooo+.O+o+o+..xOo o. . oooooo.x.ooO +o..oooOoo",
"xo+ooo..Oo.o+.ooX.o+ooo++o.+ooo x+oo+ .++oooO+. x+Oo ...O+oooo +",
"xooooO.o.oooo+o.XO.oooo..O.+o.+ox....o.+o.+o+o+.xoo.++++.oo.....",
"Xoooooo.+..oo+OoxOoo..o+.oo+oo.Ox+.O.oo .o.o..o+xoo...+oo.+o+o.o",
"x+o..++O+oo  . +x.+.Ooo++ o+oo+ox+ooo.+ .oooo.o+x+oOoo.Oooo.o.o.",
"x... oo+o..ooOo.xoooooo .ooo..ooXoo+++ooo .o..Ooxo o oo.ooo.oooO",
"x+++...oooooO..+xo   .+oooo.+o.ox.o+Oo+ooooo+oooxo+.oooO++ +o.+O",
"XxXXXXXXxxXxXXXXXXXXXxXXXXXXXXXXXXXXXXXXXXXXXXXXXXXXXXXxXXXXXXxX",
"+.oo+.Oo..o.x...+O+.. +o.+. xo+o.+O. o.o+oo+xoo+ O.+o.oOO .oXoOo",
".Oo  oo+.oooxoo.oo...o.Oo+.+XOooo+O..++oooo.x...oo. .o.oO.ooxo .",
"+o+. +.oo.o+xOo+.+oo+...o.oOxo+ooOo+.O.+O+O.xo+o.o. oo.oo..ox.+.",
"+oo.oo o.oooXoo+oO o. O.o. ox.o .o oo.O.O+O+xoooo.++o.+o..ooxO. ",
"O oo+Ooooo..x.o.OO. +o+O ...x o+++ .O oo.o.OX.oo.Oooo+O+o.o.x.oo",
"o o+O.++ooo x+oOoo+oo.oo.Oooxo+.o ooooo.o...x.oo.oO. .o+++ .xO+o",
".o.oo ..O.OOx+++.o.ooOoooo+oxoooo.OoOo.ooo ox. .oooOoo..o.ooxo++",
"XXXXXXXXXXXXXxXxxxxXXXxXxXXXXxXXxxXXXxxXXXXxXXXxxXXXXXXXXXxXXXXX",
"x.++O .ooooo + +Xoo+Ooo.o ..+oo.X+ooo+ .o .+.O+ox.o.oo+oooOO.+O.",
"xo .o..o+O++oOo xOoo.oooo.+o+o.Ox.+....o+O+.OoooX oooO.....ooooo",
"X .oo.++Ooo oooOxo.oo.+o...o.o..xooooO.o..O+o++.X.o oo+ooooo++.o",
"x+.oo.oooO++ooO.xoOoo.o.+o.+Oo Ox.oo+.o+o.+o..+.xo.o+ooooo+oo o+",
"x+..O.++o.++ o++xOoo. ...oOooo+oxoooO+++o.o o.ooXO.ooooO.oooo.oO",
"xo.o +. o+.+.O.ox.oooo.o+..++oo x.o+oo +..oO+.o.xoo.o..+oo+o+o+o",
"Xooo+.++o++.+.o.x..o+.ooo+.ooo.ox++.o.oo..oo+ o x.ooo+oo+oo+oo..",
"xXXxXXXXXXXXXxxXXXXxXXXXxXXxXXXxXxXXXXXXXXxXXXXXXXXXXxXXxXXXXXXX",
"O+oo.o+.+oooxO.ooOo+ooooo OOxo+++o.oo.o.o.ooxo.ooOo+O  .+Oo xoo ",
"o.+.+o.o.+o.x++. o+oO+O.o+.+X.o..+.o+o  +o.oxo..o.O..ooo.oOOx+..",
"oo ++.ooO.+Ox++o....O.+Oooooxo+..o++O+oO+ +ox+o.Ooo+ O.oo..ox.o ",
"oo.ooooo+.OoX +. ..  ooo++oOx+o.+oo+.o.o.o..xo++O+++.o+oO. .x.o+",
"+ o+O+O.. +.X.ooooOO..o.OO.OXoo.o..+o+.oooo x.o..O.o+O..Oo  x oo",
"o.. o+O+o.o.xo..oo.o+ ..o o.xOoo.oo o.ooOoO+xo+oOO.OoO.. o .x++ ",
"o O+oOOo..o.x .+o. .oo+ooO.ox.+o.+o o+..o.ooxooo.....OOo....xoo.",
"XXXXXXXxxXXxXXXxXXXXxXXXxXXXXXxXxXxxxXXXXXxXxxxXXXxXxxXxXXXXxXXX"
};