/* XPM */
static char *wall_south[] = {
/* width height num_colors chars_per_pixel */
"64 64 5 1",
/* colors */
". c #4A4A4A",
"x c #696969",
"o c #808080",
"O c #A9A9A9",
"+ c #C0C0C0",
/* pixels */
"oooooooooooooooooooooooooooooooooooooooooooooooooooooooooooooooo",
"o+.x.+.x.+.x.+.x.+.x.+.x.+.x.+.x.+.x.+.x.+.x.+.x.+.x.+.x.+.xo",
"oO.x.O.x.O.x.O.x.O.x.O.x.O.x.O.x.O.x.O.x.O.x.O.x.O.x.O.x.O.xO",
"o+.x.+.x.+.x.+.x.+.x.+.x.+.x.+.x.+.x.+.x.+.x.+.x.+.x.+.x.+.xo",
"oO.x.O.x.O.x.O.x.O.x.O.x.O.x.O.x.O.x.O.x.O.x.O.x.O.x.O.x.O.xO",
"o+.x.+.x.+.x.+.x.+.x.+.x.+.x.+.x.+.x.+.x.+.x.+.x.+.x.+.x.+.xo",
"oO.x.O.x.O.x.O.x.O.x.O.x.O.x.O.x.O.x.O.x.O.x.O.x.O.x.O.x.O.xO",
"o+.x.+.x.+.x.+.x.+.x.+.x.+.x.+.x.+.x.+.x.+.x.+.x.+.x.+.x.+.xo",
"oO.x.O.x.O.x.O.x.O.x.O.x.O.x.O.x.O.x.O.x.O.x.O.x.O.x.O.x.O.xO",
"o+.x.+.x.+.x.+.x.+.x.+.x.+.x.+.x.+.x.+.x.+.x.+.x.+.x.+.x.+.xo",
"oO.x.O.x.O.x.O.x.O.x.O.x.O.x.O.x.O.x.O.x.O.x.O.x.O.x.O.x.O.xO",
"o+.x.+.x.+.x.+.x.+.x.+.x.+.x.+.x.+.x.+.x.+.x.+.x.+.x.+.x.+.xo",
"oO.x.O.x.O.x.O.x.O.x.O.x.O.x.O.x.O.x.O.x.O.x.O.x.O.x.O.x.O.xO",
"o+.x.+.x.+.x.+.x.+.x.+.x.+.x.+.x.+.x.+.x.+.x.+.x.+.x.+.x.+.xo",
"oO.x.O.x.O.x.O.x.O.x.O.x.O.x.O.x.O.x.O.x.O.x.O.x.O.x.O.x.O.xO",
"o+.x.+.x.+.x.+.x.+.x.+.x.+.x.+.x.+.x.+.x.+.x.+.x.+.x.+.x.+.xo",
"oO.x.O.x.O.x.O.x.O.x.O.x.O.x.O.x.O.x.O.x.O.x.O.x.O.x.O.x.O.xO",
"o+.x.+.x.+.x.+.x.+.x.+.x.+.x.+.x.+.x.+.x.+.x.+.x.+.x.+.x.+.xo",
"oO.x.O.x.O.x.O.x.O.x.O.x.O.x.O.x.O.x.O.x.O.x.O.x.O.x.O.x.O.xO",
"o+.x.+.x.+.x.+.x.+.x.+.x.+.x.+.x.+.x.+.x.+.x.+.x.+.x.+.x.+.xo",
"oO.x.O.x.O.x.O.x.O.x.O.x.O.x.O.x.O.x.O.x.O.x.O.x.O.x.O.x.O.xO",
"o+.x.+.x.+.x.+.x.+.x.+.x.+.x.+.x.+.x.+.x.+.x.+.x.+.x.+.x.+.xo",
"oO.x.O.x.O.x.O.x.O.x.O.x.O.x.O.x.O.x.O.x.O.x.O.x.O.x.O.x.O.xO",
"o+.x.+.x.+.x.+.x.+.x.+.x.+.x.+.x.+.x.+.x.+.x.+.x.+.x.+.x.+.xo",
"oO.x.O.x.O.x.O.x.O.x.O.x.O.x.O.x.O.x.O.x.O.x.O.x.O.x.O.x.O.xO",
"o+.x.+.x.+.x.+.x.+.x.+.x.+.x.+.x.+.x.+.x.+.x.+.x.+.x.+.x.+.xo",
"oO.x.O.x.O.x.O.x.O.x.O.x.O.x.O.x.O.x.O.x.O.x.O.x.O.x.O.x.O.xO",
"o+.x.+.x.+.x.+.x.+.x.+.x.+.x.+.x.+.x.+.x.+.x.+.x.+.x.+.x.+.xo",
"oO.x.O.x.O.x.O.x.O.x.O.x.O.x.O.x.O.x.O.x.O.x.O.x.O.x.O.x.O.xO",
"o+.x.+.x.+.x.+.x.+.x.+.x.+.x.+.x.+.x.+.x.+.x.+.x.+.x.+.x.+.xo",
"oO.x.O.x.O.x.O.x.O.x.O.x.O.x.O.x.O.x.O.x.O.x.O.x.O.x.O.x.O.xO",
"o+.x.+.x.+.x.+.x.+.x.+.x.+.x.+.x.+.x.+.x.+.x.+.x.+.x.+.x.+.xo",
"oO.x.O.x.O.x.O.x.O.x.O.x.O.x.O.x.O.x.O.x.O.x.O.x.O.x.O.x.O.xO",
"o+.x.+.x.+.x.+.x.+.x.+.x.+.x.+.x.+.x.+.x.+.x.+.x.+.x.+.x.+.xo",
"oO.x.O.x.O.x.O.x.O.x.O.x.O.x.O.x.O.x.O.x.O.x.O.x.O.x.O.x.O.xO",
"o+.x.+.x.+.x.+.x.+.x.+.x.+.x.+.x.+.x.+.x.+.x.+.x.+.x.+.x.+.xo",
"oO.x.O.x.O.x.O.x.O.x.O.x.O.x.O.x.O.x.O.x.O.x.O.x.O.x.O.x.O.xO",
"o+.x.+.x.+.x.+.x.+.x.+.x.+.x.+.x.+.x.+.x.+.x.+.x.+.x.+.x.+.xo",
"oO.x.O.x.O.x.O.x.O.x.O.x.O.x.O.x.O.x.O.x.O.x.O.x.O.x.O.x.O.xO",
"o+.x.+.x.+.x.+.x.+.x.+.x.+.x.+.x.+.x.+.x.+.x.+.x.+.x.+.x.+.xo",
"oO.x.O.x.O.x.O.x.O.x.O.x.O.x.O.x.O.x.O.x.O.x.O.x.O.x.O.x.O.xO",
"o+.x.+.x.+.x.+.x.+.x.+.x.+.x.+.x.+.x.+.x.+.x.+.x.+.x.+.x.+.xo",
"oO.x.O.x.O.x.O.x.O.x.O.x.O.x.O.x.O.x.O.x.O.x.O.x.O.x.O.x.O.xO",
"o+.x.+.x.+.x.+.x.+.x.+.x.+.x.+.x.+.x.+.x.+.x.+.x.+.x.+.x.+.xo",
"oO.x.O.x.O.x.O.x.O.x.O.x.O.x.O.x.O.x.O.x.O.x.O.x.O.x.O.x.O.xO",
"o+.x.+.x.+.x.+.x.+.x.+.x.+.x.+.x.+.x.+.x.+.x.+.x.+.x.+.x.+.xo",
"oO.x.O.x.O.x.O.x.O.x.O.x.O.x.O.x.O.x.O.x.O.x.O.x.O.x.O.x.O.xO",
"o+.x.+.x.+.x.+.x.+.x.+.x.+.x.+.x.+.x.+.x.+.x.+.x.+.x.+.x.+.xo",
"oO.x.O.x.O.x.O.x.O.x.O.x.O.x.O.x.O.x.O.x.O.x.O.x.O.x.O.x.O.xO",
"o+.x.+.x.+.x.+.x.+.x.+.x.+.x.+.x.+.x.+.x.+.x.+.x.+.x.+.x.+.xo",
"oO.x.O.x.O.x.O.x.O.x.O.x.O.x.O.x.O.x.O.x.O.x.O.x.O.x.O.x.O.xO",
"o+.x.+.x.+.x.+.x.+.x.+.x.+.x.+.x.+.x.+.x.+.x.+.x.+.x.+.x.+.xo",
"oO.x.O.x.O.x.O.x.O.x.O.x.O.x.O.x.O.x.O.x.O.x.O.x.O.x.O.x.O.xO",
"oooooooooooooooooooooooooooooooooooooooooooooooooooooooooooooooo"
};
