/* XPM */
static char *wall_west[] = {
/* width height num_colors chars_per_pixel */
"64 64 5 1",
/* colors */
". c #FF6B6B",
"x c #FFA5A5",
"o c #FF8C8C",
"O c #FFD4D4",
"+ c #FFFFFF",
/* pixels */
"oooooooooooooooooooooooooooooooooooooooooooooooooooooooooooooooo",
"o.x.o.x.o.x.o.x.o.x.o.x.o.x.o.x.o.x.o.x.o.x.o.x.o.x.o.x.o.xo",
"oO+O+O+O+O+O+O+O+O+O+O+O+O+O+O+O+O+O+O+O+O+O+O+O+O+O+O+O+O+Oo",
"o.x.o.x.o.x.o.x.o.x.o.x.o.x.o.x.o.x.o.x.o.x.o.x.o.x.o.x.o.xo",
"oO+O+O+O+O+O+O+O+O+O+O+O+O+O+O+O+O+O+O+O+O+O+O+O+O+O+O+O+O+Oo",
"o.x.o.x.o.x.o.x.o.x.o.x.o.x.o.x.o.x.o.x.o.x.o.x.o.x.o.x.o.xo",
"oO+O+O+O+O+O+O+O+O+O+O+O+O+O+O+O+O+O+O+O+O+O+O+O+O+O+O+O+O+Oo",
"o.x.o.x.o.x.o.x.o.x.o.x.o.x.o.x.o.x.o.x.o.x.o.x.o.x.o.x.o.xo",
"oO+O+O+O+O+O+O+O+O+O+O+O+O+O+O+O+O+O+O+O+O+O+O+O+O+O+O+O+O+Oo",
"o.x.o.x.o.x.o.x.o.x.o.x.o.x.o.x.o.x.o.x.o.x.o.x.o.x.o.x.o.xo",
"oO+O+O+O+O+O+O+O+O+O+O+O+O+O+O+O+O+O+O+O+O+O+O+O+O+O+O+O+O+Oo",
"o.x.o.x.o.x.o.x.o.x.o.x.o.x.o.x.o.x.o.x.o.x.o.x.o.x.o.x.o.xo",
"oO+O+O+O+O+O+O+O+O+O+O+O+O+O+O+O+O+O+O+O+O+O+O+O+O+O+O+O+O+Oo",
"o.x.o.x.o.x.o.x.o.x.o.x.o.x.o.x.o.x.o.x.o.x.o.x.o.x.o.x.o.xo",
"oO+O+O+O+O+O+O+O+O+O+O+O+O+O+O+O+O+O+O+O+O+O+O+O+O+O+O+O+O+Oo",
"o.x.o.x.o.x.o.x.o.x.o.x.o.x.o.x.o.x.o.x.o.x.o.x.o.x.o.x.o.xo",
"oO+O+O+O+O+O+O+O+O+O+O+O+O+O+O+O+O+O+O+O+O+O+O+O+O+O+O+O+O+Oo",
"o.x.o.x.o.x.o.x.o.x.o.x.o.x.o.x.o.x.o.x.o.x.o.x.o.x.o.x.o.xo",
"oO+O+O+O+O+O+O+O+O+O+O+O+O+O+O+O+O+O+O+O+O+O+O+O+O+O+O+O+O+Oo",
"o.x.o.x.o.x.o.x.o.x.o.x.o.x.o.x.o.x.o.x.o.x.o.x.o.x.o.x.o.xo",
"oO+O+O+O+O+O+O+O+O+O+O+O+O+O+O+O+O+O+O+O+O+O+O+O+O+O+O+O+O+Oo",
"o.x.o.x.o.x.o.x.o.x.o.x.o.x.o.x.o.x.o.x.o.x.o.x.o.x.o.x.o.xo",
"oO+O+O+O+O+O+O+O+O+O+O+O+O+O+O+O+O+O+O+O+O+O+O+O+O+O+O+O+O+Oo",
"o.x.o.x.o.x.o.x.o.x.o.x.o.x.o.x.o.x.o.x.o.x.o.x.o.x.o.x.o.xo",
"oO+O+O+O+O+O+O+O+O+O+O+O+O+O+O+O+O+O+O+O+O+O+O+O+O+O+O+O+O+Oo",
"o.x.o.x.o.x.o.x.o.x.o.x.o.x.o.x.o.x.o.x.o.x.o.x.o.x.o.x.o.xo",
"oO+O+O+O+O+O+O+O+O+O+O+O+O+O+O+O+O+O+O+O+O+O+O+O+O+O+O+O+O+Oo",
"o.x.o.x.o.x.o.x.o.x.o.x.o.x.o.x.o.x.o.x.o.x.o.x.o.x.o.x.o.xo",
"oO+O+O+O+O+O+O+O+O+O+O+O+O+O+O+O+O+O+O+O+O+O+O+O+O+O+O+O+O+Oo",
"o.x.o.x.o.x.o.x.o.x.o.x.o.x.o.x.o.x.o.x.o.x.o.x.o.x.o.x.o.xo",
"oO+O+O+O+O+O+O+O+O+O+O+O+O+O+O+O+O+O+O+O+O+O+O+O+O+O+O+O+O+Oo",
"o.x.o.x.o.x.o.x.o.x.o.x.o.x.o.x.o.x.o.x.o.x.o.x.o.x.o.x.o.xo",
"oO+O+O+O+O+O+O+O+O+O+O+O+O+O+O+O+O+O+O+O+O+O+O+O+O+O+O+O+O+Oo",
"o.x.o.x.o.x.o.x.o.x.o.x.o.x.o.x.o.x.o.x.o.x.o.x.o.x.o.x.o.xo",
"oO+O+O+O+O+O+O+O+O+O+O+O+O+O+O+O+O+O+O+O+O+O+O+O+O+O+O+O+O+Oo",
"o.x.o.x.o.x.o.x.o.x.o.x.o.x.o.x.o.x.o.x.o.x.o.x.o.x.o.x.o.xo",
"oO+O+O+O+O+O+O+O+O+O+O+O+O+O+O+O+O+O+O+O+O+O+O+O+O+O+O+O+O+Oo",
"o.x.o.x.o.x.o.x.o.x.o.x.o.x.o.x.o.x.o.x.o.x.o.x.o.x.o.x.o.xo",
"oO+O+O+O+O+O+O+O+O+O+O+O+O+O+O+O+O+O+O+O+O+O+O+O+O+O+O+O+O+Oo",
"o.x.o.x.o.x.o.x.o.x.o.x.o.x.o.x.o.x.o.x.o.x.o.x.o.x.o.x.o.xo",
"oO+O+O+O+O+O+O+O+O+O+O+O+O+O+O+O+O+O+O+O+O+O+O+O+O+O+O+O+O+Oo",
"o.x.o.x.o.x.o.x.o.x.o.x.o.x.o.x.o.x.o.x.o.x.o.x.o.x.o.x.o.xo",
"oO+O+O+O+O+O+O+O+O+O+O+O+O+O+O+O+O+O+O+O+O+O+O+O+O+O+O+O+O+Oo",
"o.x.o.x.o.x.o.x.o.x.o.x.o.x.o.x.o.x.o.x.o.x.o.x.o.x.o.x.o.xo",
"oO+O+O+O+O+O+O+O+O+O+O+O+O+O+O+O+O+O+O+O+O+O+O+O+O+O+O+O+O+Oo",
"o.x.o.x.o.x.o.x.o.x.o.x.o.x.o.x.o.x.o.x.o.x.o.x.o.x.o.x.o.xo",
"oO+O+O+O+O+O+O+O+O+O+O+O+O+O+O+O+O+O+O+O+O+O+O+O+O+O+O+O+O+Oo",
"o.x.o.x.o.x.o.x.o.x.o.x.o.x.o.x.o.x.o.x.o.x.o.x.o.x.o.x.o.xo",
"oO+O+O+O+O+O+O+O+O+O+O+O+O+O+O+O+O+O+O+O+O+O+O+O+O+O+O+O+O+Oo",
"o.x.o.x.o.x.o.x.o.x.o.x.o.x.o.x.o.x.o.x.o.x.o.x.o.x.o.x.o.xo",
"oO+O+O+O+O+O+O+O+O+O+O+O+O+O+O+O+O+O+O+O+O+O+O+O+O+O+O+O+O+Oo",
"oooooooooooooooooooooooooooooooooooooooooooooooooooooooooooooooo"
};
