/* XPM */
static char *wall_east[] = {
/* width height num_colors chars_per_pixel */
"64 64 6 1",
/* colors */
". c #1a1a1a",
"x c #4CAF50",
"o c #66BB6A",
"O c #81C784",
"+ c #A5D6A7",
"@ c #E8F5E9",
/* pixels */
"................................................................",
".x..o..x..o..x..o..x..o..x..o..x..o..x..o..x..o..x..o..x..o..",
".O@+O@+O@+O@+O@+O@+O@+O@+O@+O@+O@+O@+O@+O@+O@+O@+O@+O@+O@+O@",
".x..o..x..o..x..o..x..o..x..o..x..o..x..o..x..o..x..o..x..o..",
".O@+O@+O@+O@+O@+O@+O@+O@+O@+O@+O@+O@+O@+O@+O@+O@+O@+O@+O@+O@",
".x..o..x..o..x..o..x..o..x..o..x..o..x..o..x..o..x..o..x..o..",
".O@+O@+O@+O@+O@+O@+O@+O@+O@+O@+O@+O@+O@+O@+O@+O@+O@+O@+O@+O@",
".x..o..x..o..x..o..x..o..x..o..x..o..x..o..x..o..x..o..x..o..",
".O@+O@+O@+O@+O@+O@+O@+O@+O@+O@+O@+O@+O@+O@+O@+O@+O@+O@+O@+O@",
".x..o..x..o..x..o..x..o..x..o..x..o..x..o..x..o..x..o..x..o..",
".O@+O@+O@+O@+O@+O@+O@+O@+O@+O@+O@+O@+O@+O@+O@+O@+O@+O@+O@+O@",
".x..o..x..o..x..o..x..o..x..o..x..o..x..o..x..o..x..o..x..o..",
".O@+O@+O@+O@+O@+O@+O@+O@+O@+O@+O@+O@+O@+O@+O@+O@+O@+O@+O@+O@",
".x..o..x..o..x..o..x..o..x..o..x..o..x..o..x..o..x..o..x..o..",
".O@+O@+O@+O@+O@+O@+O@+O@+O@+O@+O@+O@+O@+O@+O@+O@+O@+O@+O@+O@",
".x..o..x..o..x..o..x..o..x..o..x..o..x..o..x..o..x..o..x..o..",
".O@+O@+O@+O@+O@+O@+O@+O@+O@+O@+O@+O@+O@+O@+O@+O@+O@+O@+O@+O@",
".x..o..x..o..x..o..x..o..x..o..x..o..x..o..x..o..x..o..x..o..",
".O@+O@+O@+O@+O@+O@+O@+O@+O@+O@+O@+O@+O@+O@+O@+O@+O@+O@+O@+O@",
".x..o..x..o..x..o..x..o..x..o..x..o..x..o..x..o..x..o..x..o..",
".O@+O@+O@+O@+O@+O@+O@+O@+O@+O@+O@+O@+O@+O@+O@+O@+O@+O@+O@+O@",
".x..o..x..o..x..o..x..o..x..o..x..o..x..o..x..o..x..o..x..o..",
".O@+O@+O@+O@+O@+O@+O@+O@+O@+O@+O@+O@+O@+O@+O@+O@+O@+O@+O@+O@",
".x..o..x..o..x..o..x..o..x..o..x..o..x..o..x..o..x..o..x..o..",
".O@+O@+O@+O@+O@+O@+O@+O@+O@+O@+O@+O@+O@+O@+O@+O@+O@+O@+O@+O@",
".x..o..x..o..x..o..x..o..x..o..x..o..x..o..x..o..x..o..x..o..",
".O@+O@+O@+O@+O@+O@+O@+O@+O@+O@+O@+O@+O@+O@+O@+O@+O@+O@+O@+O@",
".x..o..x..o..x..o..x..o..x..o..x..o..x..o..x..o..x..o..x..o..",
".O@+O@+O@+O@+O@+O@+O@+O@+O@+O@+O@+O@+O@+O@+O@+O@+O@+O@+O@+O@",
".x..o..x..o..x..o..x..o..x..o..x..o..x..o..x..o..x..o..x..o..",
".O@+O@+O@+O@+O@+O@+O@+O@+O@+O@+O@+O@+O@+O@+O@+O@+O@+O@+O@+O@",
".x..o..x..o..x..o..x..o..x..o..x..o..x..o..x..o..x..o..x..o..",
".O@+O@+O@+O@+O@+O@+O@+O@+O@+O@+O@+O@+O@+O@+O@+O@+O@+O@+O@+O@",
".x..o..x..o..x..o..x..o..x..o..x..o..x..o..x..o..x..o..x..o..",
".O@+O@+O@+O@+O@+O@+O@+O@+O@+O@+O@+O@+O@+O@+O@+O@+O@+O@+O@+O@",
".x..o..x..o..x..o..x..o..x..o..x..o..x..o..x..o..x..o..x..o..",
".O@+O@+O@+O@+O@+O@+O@+O@+O@+O@+O@+O@+O@+O@+O@+O@+O@+O@+O@+O@",
".x..o..x..o..x..o..x..o..x..o..x..o..x..o..x..o..x..o..x..o..",
".O@+O@+O@+O@+O@+O@+O@+O@+O@+O@+O@+O@+O@+O@+O@+O@+O@+O@+O@+O@",
".x..o..x..o..x..o..x..o..x..o..x..o..x..o..x..o..x..o..x..o..",
".O@+O@+O@+O@+O@+O@+O@+O@+O@+O@+O@+O@+O@+O@+O@+O@+O@+O@+O@+O@",
".x..o..x..o..x..o..x..o..x..o..x..o..x..o..x..o..x..o..x..o..",
".O@+O@+O@+O@+O@+O@+O@+O@+O@+O@+O@+O@+O@+O@+O@+O@+O@+O@+O@+O@",
".x..o..x..o..x..o..x..o..x..o..x..o..x..o..x..o..x..o..x..o..",
".O@+O@+O@+O@+O@+O@+O@+O@+O@+O@+O@+O@+O@+O@+O@+O@+O@+O@+O@+O@",
".x..o..x..o..x..o..x..o..x..o..x..o..x..o..x..o..x..o..x..o..",
".O@+O@+O@+O@+O@+O@+O@+O@+O@+O@+O@+O@+O@+O@+O@+O@+O@+O@+O@+O@",
".x..o..x..o..x..o..x..o..x..o..x..o..x..o..x..o..x..o..x..o..",
".O@+O@+O@+O@+O@+O@+O@+O@+O@+O@+O@+O@+O@+O@+O@+O@+O@+O@+O@+O@",
".x..o..x..o..x..o..x..o..x..o..x..o..x..o..x..o..x..o..x..o..",
".O@+O@+O@+O@+O@+O@+O@+O@+O@+O@+O@+O@+O@+O@+O@+O@+O@+O@+O@+O@",
".x..o..x..o..x..o..x..o..x..o..x..o..x..o..x..o..x..o..x..o..",
".O@+O@+O@+O@+O@+O@+O@+O@+O@+O@+O@+O@+O@+O@+O@+O@+O@+O@+O@+O@",
"................................................................"
};
